static/img/logo-light.svg

<svg width="245" height="52" viewBox="0 0 245 52" fill="none" xmlns="http://www.w3.org/2000/svg">
<path d="M32.5577 0.962408L16.8309 17.2973H25.2671C30.9469 17.2973 33.5362 22.8496 33.5362 25.973V50.6119C33.5362 51.3784 34.1345 52 34.8727 52H48.8216C49.5598 52 50.158 51.3806 50.1591 50.6141C50.1687 43.4751 50.2415 28.7774 50.2415 17.2973C50.2415 7.23703 42.5208 0.723875 34.9182 0.0111607C34.0355 -0.0715702 33.1842 0.311608 32.5577 0.962408Z" fill="url(#paint0_linear_1316_125)"/>
<path fill-rule="evenodd" clip-rule="evenodd" d="M0 1.38667C0 0.620832 0.602837 0 1.34647 0H3.02957C3.7732 0 4.37604 0.620832 4.37604 1.38667V15.9467C4.37604 16.7125 3.7732 17.3333 3.02957 17.3333H1.34647C0.602835 17.3333 0 16.7125 0 15.9467V1.38667ZM7.57391 0C6.83028 0 6.22744 0.620832 6.22744 1.38667V15.9467C6.22744 16.7125 6.83028 17.3333 7.57391 17.3333H9.257C10.0006 17.3333 10.6035 16.7125 10.6035 15.9467V1.38667C10.6035 0.620832 10.0006 0 9.257 0H7.57391ZM13.8014 0C13.0577 0 12.4549 0.620832 12.4549 1.38667V15.9467C12.4549 16.7125 13.0577 17.3333 13.8014 17.3333H16.8309L13.2436 21.0277C12.7386 21.5478 12.4549 22.2532 12.4549 22.9888V50.6133C12.4549 51.3793 13.0577 52 13.8014 52H15.4844C16.2281 52 16.8309 51.3793 16.8309 50.6133V17.3333V1.38667C16.8309 0.620832 16.2281 0 15.4844 0H13.8014ZM0.788745 33.8544C0.283721 34.3744 0 35.0798 0 35.8154V50.6133C0 51.3793 0.602835 52 1.34647 52H3.02957C3.7732 52 4.37604 51.3793 4.37604 50.6133V30.997C4.37604 30.688 4.01346 30.5333 3.80139 30.7517L0.788745 33.8544ZM6.22744 29.4021C6.22744 28.6665 6.51117 27.9611 7.01618 27.4411L10.0288 24.3384C10.2409 24.12 10.6035 24.2747 10.6035 24.5837V50.6133C10.6035 51.3793 10.0006 52 9.257 52H7.57391C6.83028 52 6.22744 51.3793 6.22744 50.6133V29.4021Z" fill="#1B1B42"/>
<path d="M70.2538 36.608V12.2147H64.3092V36.608H70.2538Z" fill="#1B1B42"/>
<path d="M80.2508 18.1935H74.5454V36.608H80.3875V27.5545C80.3875 23.6598 83.2573 22.4299 85.7512 22.4299C88.5527 22.4299 90.2609 23.5914 90.2609 26.4954V36.608H96.103V24.5822C96.103 19.8334 92.6866 17.7494 88.0744 17.7494C84.9655 17.7494 82.4373 18.6035 80.4216 20.5167H80.2508V18.1935Z" fill="#1B1B42"/>
<path d="M111 15.2895C112.025 15.2895 112.538 15.3579 113.016 15.4262V11.2923C112.538 11.224 111.649 11.0532 109.907 11.0532C104.782 11.0532 101.776 12.3856 101.776 16.8952V18.1935H98.5986V21.9516H101.776V36.6422H107.618V21.9516H112.606V18.1935H107.618V17.6127C107.618 15.4945 109.087 15.2895 111 15.2895Z" fill="#1B1B42"/>
<path d="M115.149 18.1935V36.608H120.991V28.5453C120.991 24.2406 124.407 23.2498 127.619 23.2498C128.746 23.2498 129.805 23.4206 130.557 23.5914V17.9202C130.079 17.7835 129.395 17.7152 128.78 17.7152C125.261 17.7152 122.836 18.6718 121.025 20.6192H120.854V18.1935H115.149Z" fill="#1B1B42"/>
<path d="M153.5 33.6357V23.2156C153.5 18.8084 149.298 17.5444 143.387 17.5444C137.955 17.5444 133.206 19.0818 133.07 23.6939H139.219C139.356 22.1565 141.133 21.5074 143.422 21.5074C146.257 21.5074 147.419 22.1907 147.419 23.2156C147.419 24.1722 146.77 24.5822 145.301 24.7189L137.682 25.5046C134.334 25.8463 131.84 27.3153 131.84 31.3126C131.84 35.4806 135.53 37.2913 139.424 37.2913C142.943 37.2913 145.984 36.2664 147.795 34.0115V34.6265C147.795 35.5831 148 36.3005 148.307 36.608H154.012V36.403C153.534 35.8222 153.5 34.6948 153.5 33.6357ZM147.658 28.5794C147.658 32.3033 143.763 33.5332 141.167 33.5332C139.254 33.5332 137.887 32.9524 137.887 31.2784C137.887 29.741 138.946 29.1602 140.518 28.9552L145.95 28.1695C146.565 28.1011 147.282 27.9645 147.658 27.6912V28.5794Z" fill="#1B1B42"/>
<path d="M168.114 32.8841C164.629 32.8841 162.613 30.9368 162.613 27.4178C162.613 23.8989 164.629 21.9516 168.114 21.9516C171.838 21.9516 173.068 23.5573 173.375 25.163H179.764C179.183 20.8241 176.142 17.5444 168.114 17.5444C160.666 17.5444 156.566 21.1658 156.566 27.4178C156.566 33.6357 160.666 37.2913 168.114 37.2913C176.142 37.2913 179.251 33.9774 179.832 29.5702H173.409C173.102 31.2784 171.838 32.8841 168.114 32.8841Z" fill="#1B1B42"/>
<path d="M193.875 17.5444C186.222 17.5444 182.123 21.1999 182.123 27.4178C182.123 33.6357 186.222 37.2913 193.875 37.2913C201.528 37.2913 205.628 33.6357 205.628 27.4178C205.628 21.1999 201.528 17.5444 193.875 17.5444ZM193.875 32.8841C190.185 32.8841 188.17 30.9368 188.17 27.4178C188.17 23.8989 190.185 21.9516 193.875 21.9516C197.565 21.9516 199.581 23.8989 199.581 27.4178C199.581 30.9368 197.565 32.8841 193.875 32.8841Z" fill="#1B1B42"/>
<path d="M222.911 23.6939H229.06C228.89 19.0818 224.141 17.5444 218.23 17.5444C212.457 17.5444 208.084 19.0134 208.084 23.3865C208.084 27.1787 210.68 28.3744 214.609 28.8869L220.929 29.7068C222.672 29.946 223.389 30.3218 223.389 31.4151C223.389 32.6108 222.057 33.3966 218.777 33.3966C215.736 33.3966 213.857 32.7475 213.721 30.5951H207.434C207.639 35.9931 212.354 37.2913 218.674 37.2913C225.576 37.2913 229.778 35.8906 229.778 31.1076C229.778 27.0079 227.318 25.8121 223.321 25.368L216.59 24.5822C214.848 24.3772 214.267 24.0014 214.267 23.0448C214.267 22.0541 215.463 21.3708 218.196 21.3708C220.861 21.3708 222.774 21.9516 222.911 23.6939Z" fill="#1B1B42"/>
<path d="M241.923 32.1667C240.454 32.1667 239.634 31.7567 239.634 30.3901V21.9516H244.622V18.1935H239.634V13.1713H233.792V18.1935H230.615V21.9516H233.792V31.4492C233.792 35.4806 235.5 36.9155 240.762 36.9155C242.162 36.9155 243.802 36.7447 244.588 36.608V31.9958C243.768 32.1325 242.572 32.1667 241.923 32.1667Z" fill="#1B1B42"/>
<defs>
<linearGradient id="paint0_linear_1316_125" x1="50.2415" y1="-0.0540031" x2="4.94058" y2="14.1934" gradientUnits="userSpaceOnUse">
<stop stop-color="#E7B28C"/>
<stop offset="0.49698" stop-color="#BD62B6"/>
<stop offset="1" stop-color="#6658C5"/>
</linearGradient>
</defs>
</svg>

<svg xmlns="http://www.w3.org/2000/svg" width="245" height="52" fill="none"><path fill="url(#a)" d="M32.558.962 16.83 17.297h8.436c5.68 0 8.27 5.553 8.27 8.676v24.639c0 .766.598 1.388 1.336 1.388h13.949c.738 0 1.336-.62 1.337-1.386.01-7.139.083-21.837.083-33.317C50.242 7.237 42.52.724 34.918.011c-.883-.083-1.734.3-2.36.951Z"/><path fill="#1B1B42" fill-rule="evenodd" d="M0 1.387C0 .62.603 0 1.346 0H3.03c.743 0 1.346.62 1.346 1.387v14.56c0 .765-.603 1.386-1.346 1.386H1.346c-.743 0-1.346-.62-1.346-1.386V1.387ZM7.574 0C6.83 0 6.227.62 6.227 1.387v14.56c0 .765.603 1.386 1.347 1.386h1.683c.744 0 1.347-.62 1.347-1.386V1.387C10.604.62 10 0 9.257 0H7.574ZM13.8 0c-.743 0-1.346.62-1.346 1.387v14.56c0 .765.603 1.386 1.346 1.386h3.03l-3.587 3.695a2.816 2.816 0 0 0-.79 1.96v27.625c0 .766.604 1.387 1.347 1.387h1.683c.744 0 1.347-.62 1.347-1.387V1.387C16.83.62 16.228 0 15.484 0h-1.683ZM.79 33.854A2.815 2.815 0 0 0 0 35.815v14.798C0 51.38.603 52 1.346 52H3.03c.743 0 1.346-.62 1.346-1.387V30.997c0-.309-.363-.464-.575-.245L.79 33.854Zm5.438-4.452c0-.736.284-1.44.79-1.96l3.012-3.104c.212-.218.575-.063.575.246v26.03C10.604 51.378 10 52 9.257 52H7.574c-.744 0-1.347-.62-1.347-1.387v-21.21Z" clip-rule="evenodd"/><path fill="#1B1B42" d="M70.254 36.608V12.215h-5.945v24.393h5.945ZM80.25 18.194h-5.705v18.414h5.843v-9.053c0-3.895 2.87-5.125 5.363-5.125 2.802 0 4.51 1.161 4.51 4.065v10.113h5.842V24.582c0-4.749-3.416-6.833-8.029-6.833-3.108 0-5.637.855-7.652 2.768h-.171v-2.323ZM111 15.29c1.025 0 1.538.068 2.016.136v-4.134c-.478-.068-1.367-.239-3.109-.239-5.125 0-8.131 1.333-8.131 5.842v1.299h-3.177v3.758h3.177v14.69h5.842v-14.69h4.988v-3.759h-4.988v-.58c0-2.118 1.469-2.323 3.382-2.323ZM115.149 18.194v18.414h5.842v-8.063c0-4.304 3.416-5.295 6.628-5.295 1.127 0 2.186.17 2.938.341v-5.67c-.478-.137-1.162-.206-1.777-.206-3.519 0-5.944.957-7.755 2.904h-.171v-2.425h-5.705ZM153.5 33.636v-10.42c0-4.408-4.202-5.672-10.113-5.672-5.432 0-10.181 1.538-10.317 6.15h6.149c.137-1.537 1.914-2.187 4.203-2.187 2.835 0 3.997.684 3.997 1.709 0 .956-.649 1.366-2.118 1.503l-7.619.786c-3.348.341-5.842 1.81-5.842 5.808 0 4.168 3.69 5.978 7.584 5.978 3.519 0 6.56-1.025 8.371-3.28v.615c0 .957.205 1.675.512 1.982h5.705v-.205c-.478-.58-.512-1.708-.512-2.767Zm-5.842-5.057c0 3.724-3.895 4.954-6.491 4.954-1.913 0-3.28-.58-3.28-2.255 0-1.537 1.059-2.118 2.631-2.323l5.432-.785c.615-.069 1.332-.206 1.708-.479v.888ZM168.114 32.884c-3.485 0-5.501-1.947-5.501-5.466 0-3.52 2.016-5.466 5.501-5.466 3.724 0 4.954 1.605 5.261 3.211h6.389c-.581-4.339-3.622-7.619-11.65-7.619-7.448 0-11.548 3.622-11.548 9.874 0 6.218 4.1 9.873 11.548 9.873 8.028 0 11.137-3.314 11.718-7.72h-6.423c-.307 1.707-1.571 3.313-5.295 3.313ZM193.875 17.544c-7.653 0-11.752 3.656-11.752 9.874s4.099 9.873 11.752 9.873c7.653 0 11.753-3.655 11.753-9.873s-4.1-9.874-11.753-9.874Zm0 15.34c-3.69 0-5.705-1.947-5.705-5.466 0-3.52 2.015-5.466 5.705-5.466s5.706 1.947 5.706 5.466-2.016 5.466-5.706 5.466ZM222.911 23.694h6.149c-.17-4.612-4.919-6.15-10.83-6.15-5.773 0-10.146 1.47-10.146 5.843 0 3.792 2.596 4.987 6.525 5.5l6.32.82c1.743.239 2.46.615 2.46 1.708 0 1.196-1.332 1.982-4.612 1.982-3.041 0-4.92-.65-5.056-2.802h-6.287c.205 5.398 4.92 6.696 11.24 6.696 6.902 0 11.104-1.4 11.104-6.183 0-4.1-2.46-5.296-6.457-5.74l-6.731-.786c-1.742-.205-2.323-.58-2.323-1.537 0-.99 1.196-1.674 3.929-1.674 2.665 0 4.578.58 4.715 2.323ZM241.923 32.167c-1.469 0-2.289-.41-2.289-1.777v-8.438h4.988v-3.759h-4.988v-5.022h-5.842v5.023h-3.177v3.758h3.177v9.497c0 4.032 1.708 5.466 6.97 5.466 1.4 0 3.04-.17 3.826-.307v-4.612c-.82.137-2.016.17-2.665.17Z"/><defs><linearGradient id="a" x1="50.242" x2="4.941" y1="-.054" y2="14.193" gradientUnits="userSpaceOnUse"><stop stop-color="#E7B28C"/><stop offset=".497" stop-color="#BD62B6"/><stop offset="1" stop-color="#6658C5"/></linearGradient></defs></svg>
